icons/simple_logo.svg

<svg width="48" height="48" viewBox="0 0 48 48" fill="none" xmlns="http://www.w3.org/2000/svg">
<path fill-rule="evenodd" clip-rule="evenodd" d="M25.917 5.45649C29.5252 9.40723 39.0001 20.6226 39.0001 29.4545C39.0001 37.4878 32.5281 44 24.5444 44C16.5607 44 10.0886 37.4878 10.0886 29.4545C10.0886 20.6226 19.5636 9.40723 23.1717 5.45649C24.0203 4.52733 24.5444 4 24.5444 4C24.5444 4 25.0684 4.52733 25.917 5.45649ZM24.5444 6.91948C24.7759 7.17403 25.0305 7.45747 25.3042 7.76732C26.6293 9.2673 28.3925 11.3746 30.1513 13.808C31.9142 16.2469 33.6455 18.9764 34.9297 21.7223C36.2236 24.4889 37.0001 27.1388 37.0001 29.4545C37.0001 36.3949 31.4118 42 24.5444 42C17.677 42 12.0886 36.3949 12.0886 29.4545C12.0886 27.1388 12.8651 24.4889 14.159 21.7223C15.4432 18.9764 17.1746 16.2469 18.9374 13.808C20.6962 11.3746 22.4595 9.2673 23.7845 7.76732C24.0583 7.45747 24.3129 7.17403 24.5444 6.91948Z" fill="black"/>
<path fill-rule="evenodd" clip-rule="evenodd" d="M31.426 32.301C30.7823 31.8122 29.8593 31.9313 29.3645 32.5671L29.1619 32.8273C26.808 35.8516 22.1922 35.8516 19.8383 32.8273L19.6357 32.5671C19.1409 31.9313 18.218 31.8122 17.5742 32.301C16.9305 32.7898 16.81 33.7016 17.3048 34.3375L17.5074 34.5976C21.0382 39.1341 27.962 39.1341 31.4929 34.5976L31.6954 34.3375C32.1903 33.7016 32.0697 32.7898 31.426 32.301Z" fill="black"/>
</svg>

<svg
  xmlns="http://www.w3.org/2000/svg"
  width="24"
  height="24"
  viewBox="0 0 24 24"
  fill="none"
  stroke="currentColor"
  stroke-width="2"
  stroke-linecap="round"
  stroke-linejoin="round"
>
  <path
    fill-rule="evenodd"
    d="M25.917 5.456C29.525 9.407 39 20.623 39 29.455 39 37.488 32.528 44 24.544 44S10.09 37.488 10.09 29.455c0-8.832 9.475-20.048 13.083-23.999C24.02 4.527 24.544 4 24.544 4s.524.527 1.373 1.456M24.544 6.92q.349.383.76.848a81 81 0 0 1 4.847 6.041c1.763 2.439 3.494 5.168 4.779 7.914C36.224 24.49 37 27.14 37 29.454 37 36.395 31.412 42 24.544 42S12.09 36.395 12.09 29.455c0-2.316.776-4.966 2.07-7.733 1.284-2.746 3.016-5.475 4.778-7.914a81 81 0 0 1 5.607-6.889"
    clip-rule="evenodd"
  />
  <path
    fill-rule="evenodd"
    d="M31.426 32.301a1.48 1.48 0 0 0-2.061.266l-.203.26c-2.354 3.025-6.97 3.025-9.324 0l-.202-.26a1.48 1.48 0 0 0-2.062-.266 1.44 1.44 0 0 0-.27 2.036l.203.26c3.531 4.537 10.455 4.537 13.986 0l.202-.26a1.44 1.44 0 0 0-.269-2.036"
    clip-rule="evenodd"
  />
</svg>
